svg/Pictogram/pictograms-nps-misc-lookout_tower.svg

<?xml version="1.0" encoding="UTF-8" standalone="no"?>
<!-- Created with Inkscape (http://www.inkscape.org/) -->
<svg
   xmlns:dc="http://purl.org/dc/elements/1.1/"
   xmlns:cc="http://creativecommons.org/ns#"
   xmlns:rdf="http://www.w3.org/1999/02/22-rdf-syntax-ns#"
   xmlns:svg="http://www.w3.org/2000/svg"
   xmlns="http://www.w3.org/2000/svg"
   xmlns:sodipodi="http://sodipodi.sourceforge.net/DTD/sodipodi-0.dtd"
   xmlns:inkscape="http://www.inkscape.org/namespaces/inkscape"
   width="256"
   height="256"
   id="svg5294"
   sodipodi:version="0.32"
   inkscape:version="0.46"
   version="1.0"
   sodipodi:docname="pictograms-nps-misc-lookout_tower-2.svg"
   inkscape:output_extension="org.inkscape.output.svg.inkscape">
  <defs
     id="defs5296">
    <inkscape:perspective
       sodipodi:type="inkscape:persp3d"
       inkscape:vp_x="0 : 526.18109 : 1"
       inkscape:vp_y="0 : 1000 : 0"
       inkscape:vp_z="744.09448 : 526.18109 : 1"
       inkscape:persp3d-origin="372.04724 : 350.78739 : 1"
       id="perspective5302" />
  </defs>
  <sodipodi:namedview
     id="base"
     pagecolor="#ffffff"
     bordercolor="#666666"
     borderopacity="1.0"
     gridtolerance="10000"
     guidetolerance="10"
     objecttolerance="10"
     inkscape:pageopacity="0.0"
     inkscape:pageshadow="2"
     inkscape:zoom="0.98994949"
     inkscape:cx="112.80911"
     inkscape:cy="62.857143"
     inkscape:document-units="px"
     inkscape:current-layer="layer1"
     showgrid="false"
     inkscape:window-width="725"
     inkscape:window-height="674"
     inkscape:window-x="1"
     inkscape:window-y="309" />
  <metadata
     id="metadata5299">
    <rdf:RDF>
      <cc:Work
         rdf:about="">
        <dc:format>image/svg+xml</dc:format>
        <dc:type
           rdf:resource="http://purl.org/dc/dcmitype/StillImage" />
      </cc:Work>
    </rdf:RDF>
  </metadata>
  <g
     inkscape:label="Layer 1"
     inkscape:groupmode="layer"
     id="layer1">
    <g
       id="g5770"
       transform="matrix(25.897825,0,0,-25.897825,30.598322,5.2417198)">
      <path
         d="M 0,0 C -0.541,0 -0.981,-0.44 -0.981,-0.981 L -0.981,-8.503 C -0.981,-9.043 -0.541,-9.482 0,-9.482 L 7.521,-9.482 C 8.063,-9.482 8.503,-9.043 8.503,-8.503 L 8.503,-0.981 C 8.503,-0.44 8.063,0 7.521,0 L 0,0 z"
         style="fill:#ffffff;fill-opacity:1;fill-rule:nonzero;stroke:none"
         id="path5772" />
    </g>
    <g
       id="g5774"
       transform="matrix(25.897825,0,0,-25.897825,225.38877,256)">
      <path
         d="M 0,0 C 0.652,0 1.182,0.527 1.182,1.18 L 1.182,8.701 C 1.182,9.354 0.652,9.883 0,9.883 L -7.521,9.883 C -8.174,9.883 -8.703,9.354 -8.703,8.701 L -8.703,1.18 C -8.703,0.527 -8.174,0 -7.521,0 L 0,0 z"
         style="fill:#000000;fill-opacity:1;fill-rule:nonzero;stroke:none"
         id="path5776" />
    </g>
    <path
       d="M 95.941041,77.905837 L 158.92455,77.905837 L 158.92455,53.121619 L 95.941041,53.121619 L 95.941041,77.905837 z M 152.13932,135.91697 L 136.9114,154.38211 L 163.32718,186.54721 L 152.13932,135.91697 z M 148.09926,117.6072 L 143.25637,95.464562 L 111.68692,95.464562 L 106.81813,117.55541 L 127.45869,142.85758 L 148.09926,117.6072 z M 91.538411,186.54721 L 117.95419,154.38211 L 102.72627,135.91697 L 91.538411,186.54721 z M 84.5201,218.32384 L 81.826726,230.49582 L 64.39749,230.44403 L 94.28358,95.516358 L 77.035629,95.360971 L 77.035629,46.232797 L 127.45869,23.623996 L 177.88176,46.232797 L 177.88176,95.360971 L 160.63381,95.516358 L 190.494,230.44403 L 173.09066,230.49582 L 170.39729,218.37564 L 127.45869,166.01024 L 84.5201,218.32384 z"
       style="fill:#ffffff;fill-opacity:1;fill-rule:nonzero;stroke:none"
       id="path5778" />
  </g>
</svg>

<svg xmlns="http://www.w3.org/2000/svg" viewBox="0 0 256 256"><path d="m0 0c-.541 0-.981-.44-.981-.981v-7.522c0-.54.44-.979.981-.979h7.521c.542 0 .982.439.982.979v7.522c0 .541-.44.981-.982.981h-7.521" fill="#fff" transform="matrix(25.89783 0 0-25.89783 30.598 5.242)"/><path d="m0 0c.652 0 1.182.527 1.182 1.18v7.521c0 .653-.53 1.182-1.182 1.182h-7.521c-.653 0-1.182-.529-1.182-1.182v-7.521c0-.653.529-1.18 1.182-1.18h7.521" transform="matrix(25.89783 0 0-25.89783 225.39 256)"/><path d="m95.94 77.906h62.984v-24.784h-62.984v24.784m56.2 58.01l-15.228 18.465 26.416 32.17-11.188-50.63m-4.04-18.31l-4.843-22.14h-31.569l-4.869 22.09 20.641 25.302 20.641-25.25m-56.56 68.94l26.416-32.17-15.228-18.465-11.188 50.63m-7.02 31.777l-2.693 12.172-17.429-.052 29.886-134.93-17.248-.155v-49.13l50.42-22.609 50.42 22.609v49.13l-17.248.155 29.86 134.93-17.403.052-2.693-12.12-42.939-52.37-42.939 52.31" fill="#fff"/></svg>
